flaticon/music/metronome.svg

<svg xmlns="http://www.w3.org/2000/svg" width="32" height="32" viewBox="0 0 24 24">
    <path d="M 22.753906 6.339844 C 22.59375 6.179688 22.332031 6.179688 22.167969 6.339844 L 21.003906 7.507812 C 20.941406 7.46875 20.871094 7.445312 20.796875 7.445312 L 19.972656 7.445312 C 19.859375 7.445312 19.753906 7.488281 19.679688 7.566406 L 19.265625 7.980469 C 19.1875 8.058594 19.144531 8.160156 19.144531 8.273438 L 19.144531 9.097656 C 19.144531 9.167969 19.164062 9.230469 19.195312 9.289062 L 17.394531 11.09375 L 15.820312 3.230469 C 15.78125 3.035156 15.613281 2.898438 15.414062 2.898438 L 15.117188 2.898438 L 14.644531 0.339844 C 14.609375 0.140625 14.4375 0 14.238281 0 L 5.832031 0 C 5.632812 0 5.460938 0.140625 5.425781 0.339844 L 4.953125 2.898438 L 4.65625 2.898438 C 4.457031 2.898438 4.289062 3.035156 4.25 3.230469 L 1.769531 15.644531 C 1.742188 15.765625 1.773438 15.890625 1.851562 15.988281 C 1.929688 16.082031 2.050781 16.136719 2.171875 16.136719 L 2.480469 16.136719 L 1.132812 22.257812 C 1.105469 22.378906 1.136719 22.507812 1.214844 22.605469 C 1.292969 22.703125 1.414062 22.757812 1.539062 22.757812 L 2.585938 22.757812 L 2.585938 23.585938 C 2.585938 23.816406 2.773438 24 3 24 L 5.070312 24 C 5.296875 24 5.484375 23.816406 5.484375 23.585938 L 5.484375 22.757812 L 14.585938 22.757812 L 14.585938 23.585938 C 14.585938 23.816406 14.773438 24 15 24 L 17.070312 24 C 17.296875 24 17.484375 23.816406 17.484375 23.585938 L 17.484375 22.757812 L 18.53125 22.757812 C 18.65625 22.757812 18.777344 22.703125 18.855469 22.605469 C 18.933594 22.507812 18.964844 22.378906 18.9375 22.257812 L 17.589844 16.136719 L 17.898438 16.136719 C 18.019531 16.136719 18.136719 16.082031 18.21875 15.988281 C 18.296875 15.890625 18.328125 15.765625 18.300781 15.644531 L 17.585938 12.066406 L 19.78125 9.875 C 19.839844 9.90625 19.902344 9.925781 19.96875 9.925781 L 20.796875 9.925781 C 20.90625 9.925781 21.011719 9.882812 21.089844 9.804688 L 21.503906 9.390625 C 21.582031 9.3125 21.625 9.207031 21.625 9.097656 L 21.625 8.273438 C 21.625 8.210938 21.609375 8.152344 21.582031 8.097656 L 22.753906 6.925781 C 22.914062 6.765625 22.914062 6.503906 22.753906 6.339844 Z M 16.691406 11.796875 L 13.175781 15.308594 L 12.519531 15.308594 L 12.519531 3.722656 L 15.074219 3.722656 Z M 8.378906 14.898438 L 8.792969 14.898438 C 9.023438 14.898438 9.207031 14.710938 9.207031 14.484375 C 9.207031 14.253906 9.023438 14.070312 8.792969 14.070312 L 8.378906 14.070312 L 8.378906 13.242188 L 8.792969 13.242188 C 9.023438 13.242188 9.207031 13.054688 9.207031 12.828125 C 9.207031 12.597656 9.023438 12.414062 8.792969 12.414062 L 8.378906 12.414062 L 8.378906 11.585938 L 8.792969 11.585938 C 9.023438 11.585938 9.207031 11.402344 9.207031 11.171875 C 9.207031 10.945312 9.023438 10.757812 8.792969 10.757812 L 8.378906 10.757812 L 8.378906 9.929688 L 8.792969 9.929688 C 9.023438 9.929688 9.207031 9.746094 9.207031 9.515625 C 9.207031 9.289062 9.023438 9.101562 8.792969 9.101562 L 8.378906 9.101562 L 8.378906 8.277344 L 8.792969 8.277344 C 9.023438 8.277344 9.207031 8.089844 9.207031 7.863281 C 9.207031 7.632812 9.023438 7.449219 8.792969 7.449219 L 8.378906 7.449219 L 8.378906 6.621094 L 8.792969 6.621094 C 9.023438 6.621094 9.207031 6.433594 9.207031 6.207031 C 9.207031 5.976562 9.023438 5.792969 8.792969 5.792969 L 8.378906 5.792969 L 8.378906 4.964844 L 8.792969 4.964844 C 9.023438 4.964844 9.207031 4.78125 9.207031 4.550781 C 9.207031 4.324219 9.023438 4.136719 8.792969 4.136719 L 8.378906 4.136719 L 8.378906 3.722656 L 11.691406 3.722656 L 11.691406 4.136719 L 11.277344 4.136719 C 11.046875 4.136719 10.863281 4.324219 10.863281 4.550781 C 10.863281 4.78125 11.046875 4.964844 11.277344 4.964844 L 11.691406 4.964844 L 11.691406 5.792969 L 11.277344 5.792969 C 11.046875 5.792969 10.863281 5.976562 10.863281 6.207031 C 10.863281 6.433594 11.046875 6.621094 11.277344 6.621094 L 11.691406 6.621094 L 11.691406 7.449219 L 11.277344 7.449219 C 11.046875 7.449219 10.863281 7.632812 10.863281 7.863281 C 10.863281 8.089844 11.046875 8.277344 11.277344 8.277344 L 11.691406 8.277344 L 11.691406 9.101562 L 11.277344 9.101562 C 11.046875 9.101562 10.863281 9.289062 10.863281 9.515625 C 10.863281 9.746094 11.046875 9.929688 11.277344 9.929688 L 11.691406 9.929688 L 11.691406 10.757812 L 11.277344 10.757812 C 11.046875 10.757812 10.863281 10.945312 10.863281 11.171875 C 10.863281 11.402344 11.046875 11.585938 11.277344 11.585938 L 11.691406 11.585938 L 11.691406 12.414062 L 11.277344 12.414062 C 11.046875 12.414062 10.863281 12.597656 10.863281 12.828125 C 10.863281 13.054688 11.046875 13.242188 11.277344 13.242188 L 11.691406 13.242188 L 11.691406 14.070312 L 11.277344 14.070312 C 11.046875 14.070312 10.863281 14.253906 10.863281 14.484375 C 10.863281 14.710938 11.046875 14.898438 11.277344 14.898438 L 11.691406 14.898438 L 11.691406 15.308594 L 8.378906 15.308594 Z M 6.175781 0.828125 L 13.894531 0.828125 L 14.277344 2.898438 L 5.792969 2.898438 Z M 4.996094 3.722656 L 7.550781 3.722656 L 7.550781 15.308594 L 2.675781 15.308594 Z M 4.65625 23.171875 L 3.414062 23.171875 L 3.414062 22.757812 L 4.65625 22.757812 Z M 16.65625 23.171875 L 15.414062 23.171875 L 15.414062 22.757812 L 16.65625 22.757812 Z M 18.015625 21.929688 L 2.054688 21.929688 L 3.328125 16.136719 L 12.347656 16.136719 L 10.640625 17.84375 C 10.578125 17.816406 10.515625 17.792969 10.449219 17.792969 L 9.621094 17.792969 C 9.511719 17.792969 9.40625 17.835938 9.328125 17.914062 L 8.914062 18.328125 C 8.835938 18.40625 8.792969 18.511719 8.792969 18.621094 L 8.792969 19.449219 C 8.792969 19.558594 8.835938 19.664062 8.914062 19.742188 L 9.328125 20.15625 C 9.40625 20.230469 9.511719 20.277344 9.621094 20.277344 L 10.449219 20.277344 C 10.558594 20.277344 10.664062 20.230469 10.742188 20.15625 L 11.15625 19.742188 C 11.234375 19.664062 11.277344 19.558594 11.277344 19.449219 L 11.277344 18.621094 C 11.277344 18.554688 11.253906 18.488281 11.222656 18.429688 L 13.515625 16.136719 L 16.742188 16.136719 Z M 10.449219 18.792969 L 10.449219 19.277344 L 10.277344 19.449219 L 9.792969 19.449219 L 9.621094 19.277344 L 9.621094 18.792969 L 9.792969 18.621094 L 10.277344 18.621094 Z M 17.390625 15.308594 L 14.34375 15.308594 L 16.882812 12.769531 Z M 20.796875 8.929688 L 20.625 9.097656 L 20.140625 9.097656 L 19.96875 8.929688 L 19.96875 8.441406 L 20.140625 8.273438 L 20.625 8.273438 L 20.796875 8.441406 Z M 20.796875 8.929688"/>
</svg>

<svg xmlns="http://www.w3.org/2000/svg" width="32" height="32" viewBox="0 0 24 24">
    <path d="M22.754 6.34a.417.417 0 0 0-.586 0l-1.164 1.168a.39.39 0 0 0-.207-.063h-.824a.4.4 0 0 0-.293.121l-.414.414a.407.407 0 0 0-.121.293v.825a.4.4 0 0 0 .05.191l-1.8 1.805L15.82 3.23a.41.41 0 0 0-.406-.332h-.297L14.645.34a.41.41 0 0 0-.407-.34H5.832a.41.41 0 0 0-.406.34l-.473 2.558h-.297a.41.41 0 0 0-.406.332L1.77 15.645a.406.406 0 0 0 .082.343c.078.094.199.149.32.149h.308l-1.347 6.12a.414.414 0 0 0 .406.5h1.047v.829c0 .23.187.414.414.414h2.07a.414.414 0 0 0 .414-.414v-.828h9.102v.828c0 .23.187.414.414.414h2.07a.414.414 0 0 0 .414-.414v-.828h1.047a.414.414 0 0 0 .406-.5l-1.347-6.121h.308a.428.428 0 0 0 .32-.149.406.406 0 0 0 .083-.343l-.715-3.579 2.195-2.191c.059.031.121.05.188.05h.828c.11 0 .215-.042.293-.12l.414-.414a.414.414 0 0 0 .121-.293v-.825a.39.39 0 0 0-.043-.175l1.172-1.172a.417.417 0 0 0 0-.586zm-6.063 5.457l-3.515 3.512h-.656V3.723h2.554zM8.38 14.898h.414a.414.414 0 0 0 0-.828h-.414v-.828h.414a.414.414 0 0 0 0-.828h-.414v-.828h.414a.414.414 0 0 0 0-.828h-.414V9.93h.414a.414.414 0 0 0 0-.828h-.414v-.825h.414a.414.414 0 0 0 0-.828h-.414v-.828h.414a.414.414 0 0 0 0-.828h-.414v-.828h.414a.414.414 0 0 0 0-.828h-.414v-.414h3.312v.414h-.414a.414.414 0 0 0 0 .828h.414v.828h-.414a.414.414 0 0 0 0 .828h.414v.828h-.414a.414.414 0 0 0 0 .828h.414v.825h-.414a.414.414 0 0 0 0 .828h.414v.828h-.414a.414.414 0 0 0 0 .828h.414v.828h-.414a.414.414 0 0 0 0 .828h.414v.828h-.414a.414.414 0 0 0 0 .828h.414v.41H8.38zM6.176.828h7.719l.382 2.07H5.793zm-1.18 2.895h2.555v11.586H2.676zm-.34 19.449H3.414v-.414h1.242zm12 0h-1.242v-.414h1.242zm1.36-1.242H2.055l1.273-5.793h9.02l-1.707 1.707a.482.482 0 0 0-.192-.051h-.828a.414.414 0 0 0-.293.121l-.414.414a.414.414 0 0 0-.121.293v.828c0 .11.043.215.121.293l.414.414a.431.431 0 0 0 .293.121h.828c.11 0 .215-.047.293-.12l.414-.415a.414.414 0 0 0 .121-.293v-.828a.416.416 0 0 0-.054-.191l2.293-2.293h3.226zm-7.567-3.137v.484l-.172.172h-.484l-.172-.172v-.484l.172-.172h.484zm6.942-3.484h-3.047l2.539-2.54zm3.406-6.38l-.172.169h-.484l-.172-.168V8.44l.172-.168h.484l.172.168zm0 0"/>
</svg>
